icons/folder-job.svg

<svg xmlns="http://www.w3.org/2000/svg" viewBox="0 0 32 32">
  <path d="M13.84376,7.53645l-1.28749-1.0729A2,2,0,0,0,11.27591,6H4A2,2,0,0,0,2,8V24a2,2,0,0,0,2,2H28a2,2,0,0,0,2-2V10a2,2,0,0,0-2-2H15.12412A2,2,0,0,1,13.84376,7.53645Z" style="fill: #ffa000"/>
  <path d="M30,14H26V12l-2-2H20l-2,2v2H14a2,2,0,0,0-2,2V26a2,2,0,0,0,2,2H30a2,2,0,0,0,2-2V16A2,2,0,0,0,30,14ZM20,12h4v2H20Zm6,10-7.023,4-1.01416-1.72461L23.521,21.00586l-5.55811-3.26953L18.977,16.01172,26,20Z" style="fill: #ffecb3;fill-rule: evenodd"/>
</svg>

<svg xmlns="http://www.w3.org/2000/svg" viewBox="0 0 32 32"><path fill="#ffa000" d="m13.844 7.536-1.288-1.072A2 2 0 0 0 11.276 6H4a2 2 0 0 0-2 2v16a2 2 0 0 0 2 2h24a2 2 0 0 0 2-2V10a2 2 0 0 0-2-2H15.124a2 2 0 0 1-1.28-.464Z"/><path fill="#ffecb3" fill-rule="evenodd" d="M30 14h-4v-2l-2-2h-4l-2 2v2h-4a2 2 0 0 0-2 2v10a2 2 0 0 0 2 2h16a2 2 0 0 0 2-2V16a2 2 0 0 0-2-2Zm-10-2h4v2h-4Zm6 10-7.023 4-1.014-1.725 5.558-3.27-5.558-3.269 1.014-1.724L26 20Z"/></svg>
